svgs/regular/mattress-pillow.svg

<svg xmlns="http://www.w3.org/2000/svg" viewBox="0 0 640 512"><!--! Font Awesome Pro 6.6.0 by @fontawesome - https://fontawesome.com License - https://fontawesome.com/license (Commercial License) Copyright 2024 Fonticons, Inc. --><path d="M240 112l0 288L64 400c-8.8 0-16-7.2-16-16l0-256c0-8.8 7.2-16 16-16l176 0zm48 0l288 0c8.8 0 16 7.2 16 16l0 256c0 8.8-7.2 16-16 16l-288 0 0-288zM64 64C28.7 64 0 92.7 0 128L0 384c0 35.3 28.7 64 64 64l512 0c35.3 0 64-28.7 64-64l0-256c0-35.3-28.7-64-64-64L64 64zM80 176l0 160c0 17.7 14.3 32 32 32l64 0c17.7 0 32-14.3 32-32l0-160c0-17.7-14.3-32-32-32l-64 0c-17.7 0-32 14.3-32 32z"/></svg>

<svg xmlns="http://www.w3.org/2000/svg" viewBox="0 0 640 512"><!--! Font Awesome Pro 6.4.2 by @fontawesome - https://fontawesome.com License - https://fontawesome.com/license (Commercial License) Copyright 2023 Fonticons, Inc. --><path d="M240 112V400H64c-8.8 0-16-7.2-16-16V128c0-8.8 7.2-16 16-16H240zm48 0H576c8.8 0 16 7.2 16 16V384c0 8.8-7.2 16-16 16H288V112zM64 64C28.7 64 0 92.7 0 128V384c0 35.3 28.7 64 64 64H576c35.3 0 64-28.7 64-64V128c0-35.3-28.7-64-64-64H64zM80 176V336c0 17.7 14.3 32 32 32h64c17.7 0 32-14.3 32-32V176c0-17.7-14.3-32-32-32H112c-17.7 0-32 14.3-32 32z"/></svg>
